X: 20308
T: John Brennan's
R: reel
M: 4/4
K: Dmajor
dB|:AF~F2 BFAF|DEFA BABd|eB~B2 egfe|dfed BcdB|
AF~F2 BFAF|DEFA BABd|egfg efdB|1 AFGE D2dB:|2 AFGE D2FA||
~d3e fefg|afbf afdf|eB~B2 gB~B2|fedf edBd|
AF~F2 ABdf|afbf afdf|g2fg efdB|1 AFGE D2FA:|2 AFGE D2dB||

